symbols/web/security_update_warning/materialsymbolssharp/security_update_warning_wght100_24px.svg

<svg xmlns="http://www.w3.org/2000/svg" height="24" width="24"><path d="M11.65 13.65v-6.1h.7v6.1ZM12 16.3q-.2 0-.35-.15-.15-.15-.15-.35 0-.225.15-.362.15-.138.35-.138.225 0 .363.138.137.137.137.362 0 .2-.137.35-.138.15-.363.15Zm-5.7 5.4V2.3h11.4v19.4Zm.7-3.05h10V5.35H7ZM7 21h10v-1.65H7ZM7 4.65h10V3H7Zm0 0V3v1.65ZM7 21v-1.65V21Z"/></svg>

<svg xmlns="http://www.w3.org/2000/svg" height="24" width="24"><path d="M11.65 13.65V7.55H12.35V13.65ZM12 16.3Q11.8 16.3 11.65 16.15Q11.5 16 11.5 15.8Q11.5 15.575 11.65 15.438Q11.8 15.3 12 15.3Q12.225 15.3 12.363 15.438Q12.5 15.575 12.5 15.8Q12.5 16 12.363 16.15Q12.225 16.3 12 16.3ZM6.3 21.7V2.3H17.7V21.7ZM7 18.65H17V5.35H7ZM7 21H17V19.35H7ZM7 4.65H17V3H7ZM7 4.65V3V4.65ZM7 21V19.35V21Z"/></svg>
